X: 10078
T: NANCY'S WALTZ
C: Bob McQuillen 13 Apil 93
B: Bob's Note Book 10 #78
%R: waltz
Z: 2020 John Chambers <jc:trillian.mit.edu>
M: 3/4
L: 1/4
K: G
DE \
| "G"GFG | D3 | "C"G2A | "G"BAB | G3 | B2d | dBd | "Em"g3 | d2B | "C6"dcB | "D7"B3 | A2B |
| "G"GFG | D3 | "C"G2B | AGA | "G"B3 | d2d | "C"cde | "G"d3 | B2G | "D7"ABA | "G"G3- | G ||
|| Bd \
| "C"gfe | e3 | "G7"d2g | "D"aga | "G"b3 | g2d | "C"gfe | e3 | "G"d2d | "Em"gab | "C6"b3 | "D7"aba |
| "C"gfe | e3 | "G"d2d | "C"efg | "G"d3 | "C"gba | gfe | "G"d3 | dcB | "D7"AGF | "G"G3- | G |]
%%begintext align
%% NancyMonaco
%% is the manager of the Folk Shop at the Folkway
%% Coffee House and she's awfully nice to me whenever
%% I go in there -- I just thought she ought to be
%% rewarded for all her hard work! OK, Nancy!
%% P.S.- Hi, David!
%%endtext
